X: 1134
T: The Peacock Followed the Hen
T: Brose And Butter
T: Mad Moll
T: Cuddle Me Cuddy
M: 9/8
L: 1/8
R: slip jig
K: E Dorian
|: D | 
GAB GEE G2 E | GAB GEE FDD |
GAB GEE GEE | FGA ABG F2 :|
|: D |
GAB dBB d2 D | GG/A/B dBB c>BA |
GAB dBB dBB | F>GA ABG F>E :|
